symbols/web/cameraswitch/materialsymbolssharp/cameraswitch_wght300grad200fill1_24px.svg

<svg xmlns="http://www.w3.org/2000/svg" height="24" width="24"><path d="M5.775 17.45V7.9h3.3L10.4 6.575h3.225L14.95 7.9h3.3v9.55Zm6.25-3.25q.625 0 1.075-.45.45-.45.45-1.075T13.1 11.6q-.45-.45-1.075-.45t-1.075.45q-.45.45-.45 1.075t.45 1.075q.45.45 1.075.45ZM8.35.175q.875-.275 1.8-.4T12-.35q2.425 0 4.575.875 2.15.875 3.813 2.387Q22.05 4.425 23.1 6.5q1.05 2.075 1.25 4.475H22.2q-.175-1.825-.95-3.413-.775-1.587-2-2.787t-2.812-1.963q-1.588-.762-3.413-.962l1.525 1.525L13.075 4.9Zm7.3 23.625q-.875.275-1.8.4t-1.85.125q-2.4 0-4.562-.875-2.163-.875-3.825-2.388Q1.95 19.55.9 17.475T-.35 13H1.8q.175 1.8.95 3.4.775 1.6 2 2.8 1.225 1.2 2.812 1.963 1.588.762 3.413.962L9.45 20.6l1.475-1.525Z"/></svg>

<svg xmlns="http://www.w3.org/2000/svg" height="24" width="24"><path d="M5.775 17.45V7.9H9.075L10.4 6.575H13.625L14.95 7.9H18.25V17.45ZM12.025 14.2Q12.65 14.2 13.1 13.75Q13.55 13.3 13.55 12.675Q13.55 12.05 13.1 11.6Q12.65 11.15 12.025 11.15Q11.4 11.15 10.95 11.6Q10.5 12.05 10.5 12.675Q10.5 13.3 10.95 13.75Q11.4 14.2 12.025 14.2ZM8.35 0.175Q9.225 -0.1 10.15 -0.225Q11.075 -0.35 12 -0.35Q14.425 -0.35 16.575 0.525Q18.725 1.4 20.388 2.912Q22.05 4.425 23.1 6.5Q24.15 8.575 24.35 10.975H22.2Q22.025 9.15 21.25 7.562Q20.475 5.975 19.25 4.775Q18.025 3.575 16.438 2.812Q14.85 2.05 13.025 1.85L14.55 3.375L13.075 4.9ZM15.65 23.8Q14.775 24.075 13.85 24.2Q12.925 24.325 12 24.325Q9.6 24.325 7.438 23.45Q5.275 22.575 3.613 21.062Q1.95 19.55 0.9 17.475Q-0.15 15.4 -0.35 13H1.8Q1.975 14.8 2.75 16.4Q3.525 18 4.75 19.2Q5.975 20.4 7.562 21.163Q9.15 21.925 10.975 22.125L9.45 20.6L10.925 19.075Z"/></svg>
